X: 11
T: Inventio 11
C: Johann Sebastian Bach
%%abc-version 2.0
%%abcx-abcm2ps-target-version 5.9.1 (29 Sep 2008)
%%abc-creator hum2abc beta
%%abcx-conversion-date 2021/01/28 10:10:55
%%abc-copyright Copyright 1994, David Huron
%%abc-edited-by David Huron
%%abcx-initial-encoding-date 1986 November
%%gracespace 0 6 6
%%humdrum-veritas 3194496517
%%humdrum-veritas-data 2821151670
%%linebreak <none>
%%barnumbers 0
L: 1/16
M: 4/4
N: Derived from inven11.krn
Q: 1/4=88
%%staves {1 2}
V: 1 clef=treble
V: 2 clef=bass
K: Bb
[V:1] z D =E ^F G A B G A G F E D c B A | 
[V:2] G,,4z2 G,2 ^F, G, A, G, F,2 =F,2 | 
[V:1] G F =E D C B A G d c B d c B A c | 
[V:2] =E, F, G, F, E,2 _E,2 D,2!uppermordent!G,4^F,2 | 
[V:1] B A G A B c d =e f2 d2 z2 d2 | 
[V:2] G, D, =E, ^F, G, A, B, G, A, G, =F, E, D, C B, A, | 
[V:1] e d c d e2 =e2 f e d e f2 ^f2 | 
[V:2] G, F, E, D, C, B, A, G, D C B, D C B, A, C | 
[V:1] g2 d c d e f d e d c B A g f e | 
[V:2] B, A, G, A, B, C D B, C2 E,2 !uppermordent!F,2 F,,2 | 
[V:1] d c d =e f g a f g f e d ^c b a g | 
[V:2] B,,2 B,2 A,2 D2 B,2 G,2 !uppermordent!A,2 A,,2 | 
[V:1] !mordent!f4-f g a b ^c d =e d c2 =c2 | 
[V:2] D,, A,, =B,, ^C, D, =E, F, D, E, D, C, B,, A,, G, F, E, | 
[V:1] =B c d c B2 _B2 A2!uppermordent!d4!mordent!^c2 | 
[V:2] D, C, =B,, A,, G,, F, =E, D, A, G, F, A, G, F, E, G, | 
[V:1] A2!uppermordent!f4!mordent!=e2 A2a4g2- | 
[V:2] F, =E, D, F, E, D, ^C, E, D, E, F, D, G, A, B, G, | 
[V:1] g2 !mordent!f =e f d e ^c2< !turn!!uppermordent!d2 e2< ~e2 d | 
[V:2] ^C A, =B, C D F, G, A, _B, =E, F, G, A,2 A,,2 | 
[V:1] d2 c B A B c A B A G F =E d c B | 
[V:2] D,4z D, =E, F, G, A, B, G, !uppermordent!C2 C,2 | 
[V:1] A G A =B!uppermordent!c4-c A _B c!uppermordent!d4- | 
[V:2] F,2 E, D, E, F, G, E, F, E, D, C, =B,, _A, G, F, | 
[V:1] d G A =B c d e c d c B A G f e d | 
[V:2] E, D, C, D, E, F, G, _A, =B,,2 G,,2 z2 G,,2 | 
[V:1] c B _A G F e d c g f e g f e d f | 
[V:2] _A,, G,, F,, G,, A,,2 =A,,2 B,, A,, G,, A,, B,,2 =B,,2 | 
[V:1] e d c d e f g _a =B2 d2 z2 F2 | 
[V:2] C, G,, A,, =B,, C, D, E, C, D, C, B,, A,, G,, F, E, D, | 
[V:1] E2 c2 D2 !turn!=B2 c G c d!uppermordent!e4- | 
[V:2] C, B,, _A,, G,, F,, E,, F,, G,, C,, D, E, F, G, _A, B, G, | 
[V:1] e c d e!uppermordent!f4-f2 !mordent!e d2< !uppermordent!g2 f | 
[V:2] _A, G, F, E, D, C B, A, G, F, G, =A, B, C D B, | 
[V:1] e d c B A G ^F A E D =E F G A B G | 
[V:2] C B, A, G, ^F, E D CB,4-B, C D E | 
[V:1] A G ^F =E D c B A G =F _E D C B A G | 
[V:2] ^F, G, A, G, F,2 =F,2 =E, F, G, F, E,2 _E,2 | 
[V:1] d c B d c B A c B A G B A G ^F A | 
[V:2] D,2!uppermordent!G,4^F,2 D,2!uppermordent!B,4A,2 | 
[V:1] G A B c d =e ^f g a f g ad4- | 
[V:2] D,2D4C2- C E D C B, A, G, B, | 
[V:1] d c e d c B A c ^F A B A G =F E G | 
[V:2] E,4-E, D, C, E, A,,2 !uppermordent!D,2- D,2 C,2 | 
[V:1] ^C G A B D A !mordent!G ^F!fermata!!uppermordent!G8 |]  
[V:2] B,,2 A,, G,, !uppermordent!D,2 D,,2!fermata!G,,8 |]  


